icons/plexis/48/soundnode.svg

<svg viewBox="0 0 48 48" xmlns="http://www.w3.org/2000/svg" xmlns:xlink="http://www.w3.org/1999/xlink">
  <linearGradient id="a" gradientUnits="userSpaceOnUse" x2="0" y1="47" y2="1">
    <stop offset="0" stop-color="#783974"/>
    <stop offset="1" stop-color="#d42c3c"/>
  </linearGradient>
  <path d="m24 1c22.703 0 23 .297 23 23 0 22.703-.297 23-23 23-22.703 0-23-.297-23-23 0-22.703.297-23 23-23z" fill="url(#a)"/>
  <path d="m31 10a2 2 0 0 0-2 2 2 2 0 0 0  .002.051l-10.279 2.938a2 2 0 0 0-1.723-.989 2 2 0 0 0-2 2 2 2 0 0 0  .84 1.627l-3.611 9.387a2 2 0 0 0-.229-.014 2 2 0 0 0-2 2 2 2 0 0 0  2 2 2 2 0 0 0  1.113-.34l6.107 5.428a2 2 0 0 0-.22.912 2 2 0 0 0  2 2 2 2 0 0 0  2-1.984l8.244-2.063a2 2 0 0 0 1.756 1.047 2 2 0 0 0  2-2 2 2 0 0 0-.91-1.68l3.773-11.326a2 2 0 0 0  .137.006 2 2 0 0 0  2-2 2 2 0 0 0-2-2 2 2 0 0 0-1.014.279l-4.263-4.269a2 2 0 0 0  .277-1.01 2 2 0 0 0-2-2m-1.723 3.01a2 2 0 0 0  .697.703l-3.914 13.287a2 2 0 0 0-.06 0 2 2 0 0 0-.691.13l-6.795-9.823a2 2 0 0 0  .486-1.307 2 2 0 0 0-.002-.051l10.279-2.938zm2.736.711l4.266 4.264a2 2 0 0 0-.279 1.015 2 2 0 0 0  .193.855l-9.03 7.523a2 2 0 0 0-.139-.094l3.912-13.288a2 2 0 0 0  .064.004 2 2 0 0 0  1.01-.277m-14.319 4.152l6.797 9.816a2 2 0 0 0-.218.309h-10.541a2 2 0 0 0-.568-.627l3.611-9.387a2 2 0 0 0  .228.014 2 2 0 0 0  .691-.125m19.14 2.748a2 2 0 0 0  .078.055l-3.775 11.328a2 2 0 0 0-.134-.006 2 2 0 0 0-1.285.469l-3.852-2.75a2 2 0 0 0  .137-.719 2 2 0 0 0-.193-.85l9.03-7.523zm-22.831 8.377h10a2 2 0 0 0  .551 1.377l-2.949 4.713a2 2 0 0 0-.602-.09 2 2 0 0 0-1.113.34l-6.108-5.428a2 2 0 0 0  .221-.912m13.283 1.531l3.854 2.75a2 2 0 0 0-.137.703l-8.244 2.063a2 2 0 0 0-.307-.424l2.949-4.717a2 2 0 0 0  .602.094 2 2 0 0 0  1.28-.469" fill-rule="evenodd" opacity=".1"/>
  <g fill="#f9f9f9" transform="translate(0 -1)">
    <path d="m30.15 11.437l-14.523 4.15-5.215 13.557 9.457 8.404.256-.064 12.266-3.066 5.186-15.553zm-.883 1.293l-4.449 15.12-8.01-11.566zm.979.221l6.02 6.02-10.314 8.596zm-14.12 4.109l7.574 10.939h-11.781zm19.842 3.451l-4.229 12.689-5.922-4.23m-14.06.029h12.465l.107.135-4.438 7.098zm13.389.717l5.688 4.061-9.75 2.437z" fill-rule="evenodd"/>
    <circle cx="11" cy="29" r="2"/>
    <circle cx="25" cy="29" r="2"/>
    <circle cx="20" cy="37" r="2"/>
    <circle cx="32" cy="34" r="2"/>
    <circle cx="37" cy="19" r="2"/>
    <circle cx="30" cy="12" r="2"/>
    <circle cx="16" cy="16" r="2"/>
  </g>
</svg>

<svg xmlns="http://www.w3.org/2000/svg" viewBox="0 0 48 48">
 <defs>
  <linearGradient id="linearGradient4283" y1="47" x2="0" y2="1" gradientUnits="userSpaceOnUse">
   <stop style="stop-color:#783974;stop-opacity:1"/>
   <stop offset="1" style="stop-color:#d42c3c;stop-opacity:1"/>
  </linearGradient>
 </defs>
 
 
 
 <path d="M 24,1 C 46.703,1 47,1.297 47,24 47,46.703 46.703,47 24,47 1.297,47 1,46.703 1,24 1,1.297 1.297,1 24,1 Z" style="fill:url(#linearGradient4283);fill-opacity:1"/>
 
 <path d="m 31 10 a 2 2 0 0 0 -2 2 2 2 0 0 0 0.002 0.051 l -10.279 2.938 A 2 2 0 0 0 17 14 a 2 2 0 0 0 -2 2 2 2 0 0 0 0.84 1.627 l -3.611 9.387 A 2 2 0 0 0 12 27 a 2 2 0 0 0 -2 2 2 2 0 0 0 2 2 2 2 0 0 0 1.113 -0.34 l 6.107 5.428 A 2 2 0 0 0 19 37 a 2 2 0 0 0 2 2 2 2 0 0 0 2 -1.984 l 8.244 -2.063 A 2 2 0 0 0 33 36 2 2 0 0 0 35 34 2 2 0 0 0 34.09 32.32 L 37.863 20.994 A 2 2 0 0 0 38 21 2 2 0 0 0 40 19 2 2 0 0 0 38 17 2 2 0 0 0 36.986 17.279 L 32.723 13.01 A 2 2 0 0 0 33 12 2 2 0 0 0 31 10 m -1.723 3.01 a 2 2 0 0 0 0.697 0.703 L 26.06 27 A 2 2 0 0 0 26 27 2 2 0 0 0 25.309 27.13 L 18.514 17.307 A 2 2 0 0 0 19 16 2 2 0 0 0 18.998 15.949 l 10.279 -2.938 z m 2.736 0.711 4.266 4.264 A 2 2 0 0 0 36 19 a 2 2 0 0 0 0.193 0.855 l -9.03 7.523 a 2 2 0 0 0 -0.139 -0.094 L 30.936 13.996 A 2 2 0 0 0 31 14 2 2 0 0 0 32.01 13.723 M 17.691 17.875 24.488 27.691 A 2 2 0 0 0 24.27 28 l -10.541 0 a 2 2 0 0 0 -0.568 -0.627 l 3.611 -9.387 A 2 2 0 0 0 17 18 2 2 0 0 0 17.691 17.875 m 19.14 2.748 a 2 2 0 0 0 0.078 0.055 l -3.775 11.328 A 2 2 0 0 0 33 32 2 2 0 0 0 31.715 32.469 l -3.852 -2.75 A 2 2 0 0 0 28 29 2 2 0 0 0 27.807 28.15 l 9.03 -7.523 z M 14 29 24 29 a 2 2 0 0 0 0.551 1.377 L 21.602 35.09 A 2 2 0 0 0 21 35 2 2 0 0 0 19.887 35.34 L 13.779 29.912 A 2 2 0 0 0 14 29 m 13.283 1.531 3.854 2.75 A 2 2 0 0 0 31 33.984 l -8.244 2.063 a 2 2 0 0 0 -0.307 -0.424 L 25.398 30.906 A 2 2 0 0 0 26 31 2 2 0 0 0 27.28 30.531" mix-blend-mode="normal" isolation="auto" white-space="normal" solid-opacity="1" solid-color="#000000" style="visibility:visible;shape-rendering:auto;color-interpolation-filters:linearRGB;fill:#000;opacity:0.1;image-rendering:auto;fill-opacity:1;stroke:none;display:inline;color:#000;fill-rule:evenodd;color-rendering:auto;color-interpolation:sRGB"/>
 <g transform="translate(0,-1)">
  <path d="m 30.15 11.437 -14.523 4.15 -5.215 13.557 9.457 8.404 0.256 -0.064 12.266 -3.066 5.186 -15.553 z m -0.883 1.293 -4.449 15.12 -8.01 -11.566 z m 0.979 0.221 6.02 6.02 -10.314 8.596 z m -14.12 4.109 7.574 10.939 -11.781 0 z m 19.842 3.451 -4.229 12.689 -5.922 -4.23 m -14.06 0.029 12.465 0 0.107 0.135 -4.438 7.098 z m 13.389 0.717 5.688 4.061 -9.75 2.437 z" mix-blend-mode="normal" isolation="auto" white-space="normal" solid-opacity="1" solid-color="#000000" style="visibility:visible;shape-rendering:auto;color-interpolation-filters:linearRGB;fill:#f9f9f9;opacity:1;image-rendering:auto;fill-opacity:1;stroke:none;display:inline;color:#000;fill-rule:evenodd;color-rendering:auto;color-interpolation:sRGB"/>
  <circle r="2" cy="29" cx="11" style="fill:#f9f9f9;opacity:1;fill-opacity:1;stroke:none"/>
  <circle r="2" cy="29" cx="25" style="fill:#f9f9f9;opacity:1;fill-opacity:1;stroke:none"/>
  <circle r="2" cy="37" cx="20" style="fill:#f9f9f9;opacity:1;fill-opacity:1;stroke:none"/>
  <circle r="2" cy="34" cx="32" style="fill:#f9f9f9;opacity:1;fill-opacity:1;stroke:none"/>
  <circle r="2" cy="19" cx="37" style="fill:#f9f9f9;opacity:1;fill-opacity:1;stroke:none"/>
  <circle r="2" cy="12" cx="30" style="fill:#f9f9f9;opacity:1;fill-opacity:1;stroke:none"/>
  <circle r="2" cy="16" cx="16" style="fill:#f9f9f9;opacity:1;fill-opacity:1;stroke:none"/>
 </g>
</svg>
